common/src/main/resources/icons/plugins/resharper/FeaturesEnvironment/NAEnvironment.svg

<!--
  - The MIT License (MIT)
  -
  - Copyright (c) 2015-2024 Elior "Mallowigi" Boukhobza
  -
  - Permission is hereby granted, free of charge, to any person obtaining a copy
  - of this software and associated documentation files (the "Software"), to deal
  - in the Software without restriction, including without limitation the rights
  - to use, copy, modify, merge, publish, distribute, sublicense, and/or sell
  - copies of the Software, and to permit persons to whom the Software is
  - furnished to do so, subject to the following conditions:
  -
  - The above copyright notice and this permission notice shall be included in all
  - copies or substantial portions of the Software.
  -
  - THE SOFTWARE IS PROVIDED "AS IS", WITHOUT WARRANTY OF ANY KIND, EXPRESS OR
  - IMPLIED, INCLUDING BUT NOT LIMITED TO THE WARRANTIES OF MERCHANTABILITY,
  - FITNESS FOR A PARTICULAR PURPOSE AND NONINFRINGEMENT. IN NO EVENT SHALL THE
  - AUTHORS OR COPYRIGHT HOLDERS BE LIABLE FOR ANY CLAIM, DAMAGES OR OTHER
  - LIABILITY, WHETHER IN AN ACTION OF CONTRACT, TORT OR OTHERWISE, ARISING FROM,
  - OUT OF OR IN CONNECTION WITH THE SOFTWARE OR THE USE OR OTHER DEALINGS IN THE
  - SOFTWARE.
  -->

<svg data-big="true" width='16' height='16' viewBox='0,0,16,16' xmlns='http://www.w3.org/2000/svg'>
  <g>
    <path fill-rule='evenodd'
          d='M13.271500317890993,8L12.500500317890994,4.8279999999999994L11.728500317890994,8M13.513500317890994,9L11.486500317890993,9L11.000500317890994,11L10.000500317890994,11L11.701500317890993,4L13.298500317890994,4L15.000500317890994,11L14.000500317890994,11M10.000500317890994,4L9.0005003178909941,4L7.0005003178909933,11L8.0005003178909941,11M6.0005003178909933,10.999000000000002L5.0015003178909936,10.999000000000002L5.0005003178909933,11L2.0005003178909937,5.870000000000001L2.0005003178909937,10.999000000000002L1.0005003178909935,10.999000000000002L1.0005003178909935,4.0010000000000012L1.9985003178909935,4.0010000000000012L2.0005003178909937,4L5.0005003178909933,9.1300000000000026L5.0005003178909933,4.0010000000000012L6.0005003178909933,4.0010000000000012L6.0005003178909933,10.999000000000002Z'
          fill='#4DB6AC'/>
  </g>
</svg>

<svg xmlns="http://www.w3.org/2000/svg" width="16" height="16" data-big="true"><path fill="#4DB6AC" fill-rule="evenodd" d="M13.272 8 12.5 4.828 11.729 8m1.785 1h-2.027L11 11h-1l1.7-7H13.3L15 11h-1m-4-7H9l-2 7h1m-2-.001H5V11L2 5.87v5.129H1V4.001h.998L2 4l3 5.13V4.001h1z"/></svg>
